!!!COM: Anon.
!!!OTL: Quando eu tinha dezoito anos
!!!OTL: Romanceiro Folclorico do Brasil
!!!CNT: Brasil
!!!OCY: Brasil
!!!ODT: <1971///
!!!PSR: Irmaos Vitale
!!!PSP: Sao Paulo, Brasil
!!!PDT: 1952///
!!!PPE: Rossini Tavares de Lima
!!!PPG: pages 48-49
!! Romance: Costureira Ou Modista
!! Place: Capital, Sao Paulo, Brasil
**kern
*clefG2
*k[f#c#g#d#]
*M3/4
*MM100
4e
4f#
=
4g#
4g#
4b
=
2e
4f#
=
4e
2d#
=
4r
4f#
4g#
=
2a
4cc#
=
2f#
4g#
=
4f#
2e
=
4r
4b
4cc#
=
2ee
4cc#
=
2a
4f#
=
2cc#
4b
=
2g#
4e
=
2b
4a
=
2f#
4g#
=
4e
==
*-
